priv/static/svgs/country_flags/HT.svg

<?xml version="1.0" encoding="UTF-8"?>
<svg id="item" width="21px" height="15px" viewBox="0 0 21 15" version="1.1" xmlns="http://www.w3.org/2000/svg" xmlns:xlink="http://www.w3.org/1999/xlink">
    <defs>
        <linearGradient x1="50%" y1="0%" x2="50%" y2="100%" id="linearGradient-1">
            <stop stop-color="#FFFFFF" offset="0%"></stop>
            <stop stop-color="#F0F0F0" offset="100%"></stop>
        </linearGradient>
        <linearGradient x1="50%" y1="0%" x2="50%" y2="100%" id="linearGradient-2">
            <stop stop-color="#112EBC" offset="0%"></stop>
            <stop stop-color="#0620A0" offset="100%"></stop>
        </linearGradient>
        <linearGradient x1="50%" y1="0%" x2="50%" y2="100%" id="linearGradient-3">
            <stop stop-color="#E3264A" offset="0%"></stop>
            <stop stop-color="#D20F34" offset="100%"></stop>
        </linearGradient>
        <rect id="path-4" x="0" y="0" width="7" height="6" rx="0.5"></rect>
        <path d="M0,5 L1.10529494,4.44735253 C1.5994269,4.20028655 2.44266033,4 2.99895656,4 L4.00104344,4 C4.55275191,4 5.40472984,4.20236492 5.89470506,4.44735253 L7,5 L7,6 L0,6 L0,5 Z" id="path-6"></path>
        <path d="M1,3.0059123 C1,2.72650465 1.17979383,2.64383507 1.390625,2.8125 L3.109375,4.1875 C3.32511123,4.36008898 3.67979383,4.35616493 3.890625,4.1875 L5.609375,2.8125 C5.82511123,2.63991102 6,2.73071289 6,3.0059123 L6,4.4940877 C6,4.77349535 5.78515625,5 5.50230122,5 L1.49769878,5 C1.22282734,5 1,4.76928711 1,4.4940877 L1,3.0059123 Z" id="path-7"></path>
    </defs>
    <g id="Symbols" stroke="none" stroke-width="1" fill="none" fill-rule="evenodd">
        <g id="HT">
            <rect id="FlagBackground" fill="url(#linearGradient-1)" x="0" y="0" width="21" height="15"></rect>
            <rect id="Rectangle-2" fill="url(#linearGradient-2)" x="0" y="0" width="21" height="7"></rect>
            <rect id="Rectangle-2" fill="url(#linearGradient-3)" x="0" y="7" width="21" height="8"></rect>
            <g id="Rectangle-180" transform="translate(7.000000, 5.000000)">
                <mask id="mask-5" fill="white">
                    <use xlink:href="#path-4"></use>
                </mask>
                <use id="Mask" fill="url(#linearGradient-1)" xlink:href="#path-4"></use>
                <g id="Rectangle-181" mask="url(#mask-5)">
                    <use fill="#AABCAE" fill-rule="evenodd" xlink:href="#path-6"></use>
                    <path stroke="#366C14" stroke-width="0.5" d="M0.25,5.1545085 L0.25,5.75 L6.75,5.75 L6.75,5.1545085 L5.78290166,4.67095933 C5.32616358,4.44259029 4.51229671,4.25 4.00104344,4.25 L2.99895656,4.25 C2.48310198,4.25 1.67798094,4.44051803 1.21709834,4.67095933 L0.25,5.1545085 Z"></path>
                </g>
                <circle id="Oval-6" fill="#D4B872" mask="url(#mask-5)" cx="3.5" cy="2.5" r="1.5"></circle>
                <g id="Rectangle-182" mask="url(#mask-5)">
                    <use fill="#C28321" fill-rule="evenodd" xlink:href="#path-7"></use>
                    <path stroke="#0D3488" stroke-width="0.5" d="M1.25,3.02015621 L1.25,4.4940877 C1.25,4.63389068 1.36357173,4.75 1.49769878,4.75 L5.50230122,4.75 C5.64276516,4.75 5.75,4.63977414 5.75,4.4940877 L5.75,3.02015621 L4.04679876,4.3827172 C3.74324769,4.62555806 3.25884401,4.62723142 2.95320124,4.3827172 L1.25,3.02015621 Z"></path>
                </g>
                <path d="M2.17206907,1.17206907 C2.07703795,1.07703795 2.11394024,1 2.25577831,1 L4.74422169,1 C4.88548415,1 4.91935349,1.08064651 4.82793093,1.17206907 L3.67206907,2.32793093 C3.57703795,2.42296205 3.41935349,2.41935349 3.32793093,2.32793093 L2.17206907,1.17206907 Z" id="Rectangle-183" fill="#216C30" mask="url(#mask-5)"></path>
            </g>
        </g>
    </g>
</svg>

<svg width="21" height="15" viewBox="0 0 21 15" xmlns="http://www.w3.org/2000/svg" xmlns:xlink="http://www.w3.org/1999/xlink"><defs><linearGradient x1="50%" y1="0%" x2="50%" y2="100%" id="a"><stop stop-color="#FFF" offset="0%"/><stop stop-color="#F0F0F0" offset="100%"/></linearGradient><linearGradient x1="50%" y1="0%" x2="50%" y2="100%" id="b"><stop stop-color="#112EBC" offset="0%"/><stop stop-color="#0620A0" offset="100%"/></linearGradient><linearGradient x1="50%" y1="0%" x2="50%" y2="100%" id="c"><stop stop-color="#E3264A" offset="0%"/><stop stop-color="#D20F34" offset="100%"/></linearGradient><path d="m0 5 1.105-.553C1.6 4.2 2.443 4 3 4h1.002c.552 0 1.404.202 1.894.447L7 5v1H0V5Z" id="f"/><path d="M1 3.006c0-.28.18-.362.39-.193l1.72 1.374a.66.66 0 0 0 .78 0l1.72-1.375c.215-.172.39-.081.39.194v1.488c0 .28-.215.506-.498.506H1.498A.505.505 0 0 1 1 4.494V3.006Z" id="g"/><rect id="d" x="0" y="0" width="7" height="6" rx=".5"/></defs><g fill="none" fill-rule="evenodd"><path fill="url(#a)" d="M0 0h21v15H0z"/><path fill="url(#b)" d="M0 0h21v7H0z"/><path fill="url(#c)" d="M0 7h21v8H0z"/><g transform="translate(7 5)"><mask id="e" fill="#fff"><use xlink:href="#d"/></mask><use fill="url(#a)" xlink:href="#d"/><g mask="url(#e)"><use fill="#AABCAE" xlink:href="#f"/><path stroke="#366C14" stroke-width=".5" d="M.25 5.155v.595h6.5v-.595l-.967-.484C5.326 4.443 4.513 4.25 4 4.25H2.999c-.516 0-1.321.19-1.782.421l-.967.484Z"/></g><circle fill="#D4B872" mask="url(#e)" cx="3.5" cy="2.5" r="1.5"/><g mask="url(#e)"><use fill="#C28321" xlink:href="#g"/><path stroke="#0D3488" stroke-width=".5" d="M1.25 3.02v1.474c0 .14.114.256.248.256h4.004c.14 0 .248-.11.248-.256V3.02L4.047 4.383a.91.91 0 0 1-1.094 0L1.25 3.02Z"/></g><path d="M2.172 1.172C2.077 1.077 2.114 1 2.256 1h2.488c.141 0 .175.08.084.172L3.672 2.328a.247.247 0 0 1-.344 0L2.172 1.172Z" fill="#216C30" mask="url(#e)"/></g></g></svg>
